X:3250
T:Kesh Jig
O:england
R:Jig
M:6/8
L:1/8
K:G
D|G3 GAB|A3 ABd|edd gdd|edB dBA|
G3 GAB|A3 ABd|edd gdB|1 AGF G2:|2 AGF G2A
|:B3 dBd|ege dBA|B3 dBG|ABA A2G|
B3 dBd|ege dBd|g3 a3|bgf g3:|


